elements/rpg-character/lib/face/1.svg

<svg xmlns="http://www.w3.org/2000/svg" fill="none" width="113" height="142" viewBox="0 0 113 142"><path d="M48 72v5H38v-5h5v-5h20v5h5v5H58v-5H48Z" fill="#000"/></svg>

<svg width="113" height="142" viewBox="0 0 113 142" fill="none" xmlns="http://www.w3.org/2000/svg">
<path d="M48 72V77H38V72H43V67H63V72H68V77H58V72H48Z" fill="black"/>
</svg>
